31d
albertroad.htmlalbertroad.htmlalbertroad.htmlalbertroad.htmlalbertroad.htmlalbertroad.htmlalbertroad.htmlalbertroad.htmlalbertroad.htmlMike McGoldrick
albertroad.htmlFrom <I>Mike McGoldrick: Morning Rory</I>
albertroad.htmlalbertroad.html

T:September Reel
M:C|
L:1/8
Q:230
C:Mike McGoldrick
R:reel
D:Mike McGoldrick: Morning Rory
Z:Devin McCabe
K:BMin
F~B3 BAFE|FDBA FEED|~F3D EFDE|FDAF FEED|
!F~B3 BAFE|FDBA FEFA|B2BA FBAF|EFDE FDD2:|
!:~F3E FABd|~B3A BdBA|~B3d ~B3d|AFDE FEED|
!~F2FE FABd|~B3A Bded|f2fe edBA|FBBA FEDE:|

%  ABC2Win Version 2.1 9/20/2000



albertroad.htmlalbertroad.htmlalbertroad.htmlalbertroad.htmlalbertroad.htmlalbertroad.html
0

